X:1
T:Quant ie congneu
T:Pierre Sandrin
T:Source : Livre V de 25 chansons nouvelles à 4 parties---Paris---P.Attaingnant---1540. Editor : André Vierendeels (08/05/18) Notes : Original clefs : C1, C3, C3, F4 Original note values have been quartered in 3-beat measures Original note values have been halved Editorial accidentals above the staff Dotted brackets indicate black notes 
T:b
T:Quant ie congneu
T:©
T:©
T:©
T:©
T:©
C:Pierre Sandrin
Z:©
%%score [ 1 [ 2 3 ] 4 ]
L:1/8
Q:1/4=120
M:3/4
K:F
V:1 treble nm="Alto" snm="A"
V:2 treble-8 nm="Tenor 1" snm="T 1"
V:3 treble-8 nm="Tenor 2" snm="T 2"
V:4 bass nm="Bass" snm="B"
V:1
 G2 G2 G2 | F4 F2 | G4 F2 | E4 D2 | G2 G2 G2 | A2 B4 | A4 G2 | A4 z2 | G2 G2 G2 | F4 F2 | G4 F2 | %11
w: Quant ie con-|gneu en|ma pen-|sé- e,|que n'a- voys|nul bien|qu'à te|veoir,|trop ie pen-|say es-|tre'of- fen-|
 E4 D2 | B2 B2 B2 | A2 B3 A | G4 F2 |[M:2/2] G4 z2 B2 | B2 B2 A2 G2 | G2 F2 G2 A2 | A2 A2 B4 | %19
w: sé- e,|ne crai- gnant|à l'a- *|mour pre-|veoir, a-|lors tu me feis|à sça- voir, la|flam- m'en toy|
 A4 BAGF |[M:2/4] G2 G2 |[M:3/4] F4 z2 | G2 G2 G2 | F4 F2 |"^b" G2 E4 |[M:2/2] D4 z2 d2 | %26
w: y'a com- * * *|men- cé-|e,|dont no- stre'a-|mour par|seur deb-|voir a|
 d2 d2 cBAG | A2 G2 c4 | B2 AG A2 B2- | BAGF ED G2- |[M:2/4] G2 F2 |[M:3/4] G4 z2 | G2 G2 G2 | %33
w: bien es- té _ _ _|_ re- com-|pen- * * sé- *|||e,|dont no- stre'a-|
 F4 F2 |"^b" G2 E4 |[M:2/2] D4 z2 d2 | d2 d2 cBAG | A2 G2 c4 | B2 AG A2 B2- | BAGF ED G2- | %40
w: mour par|seur deb-|voir a|bien es- té _ _ _|_ re- com-|pen- * * * sé-||
"^#" G2 F2 G4- | G8 |] %42
w: * * e.|_|
V:2
 d2 d2 d2 | d4 d2 | B4 d2 | c4 B2 | d2 d2 d2 | f2 f4 | f2 d4 | d4 z2 | d2 d2 d2 | d4 d2 | B4 d2 | %11
w: Quant ie con-|gneu en|ma pen-|sé- e,|que n'a- voys|nul bien|qu'à te|veoir,|trop ie pen-|say es-|tre'of- fen-|
 c4 B2 | f2 f2 f2 | f4 d2 | e2 d4 |[M:2/2] d4 z2 g2 | g2 g2 f2 e2 | d2 d2 d2 f2 | f2 f2 f4 | %19
w: sé- e,|ne crai- gnant|à l'a-|mour pre-|veoir, a-|lors tu me feis|à sça- voir, la|flam- m'en toy|
"^b" f4 e2 d2- |[M:2/4] d2 c2 |[M:3/4] d4 z2 | d2 d2 d2 | d4 d2 | B2 c4 |[M:2/2] F4 z2 f2 | %26
w: y'a com- men-|* cé|e,|dont no- stre'a-|mour par|seur deb-|voir a|
 f4 f2 c2- | cdef g4 | z2 f4 f2- | f2 ed c2 d2 |[M:2/4] d4 |[M:3/4] d4 z2 | d2 d2 d2 | d4 d2 | %34
w: bien es- té|_ _ _ _ _|re- com-|* * * * pen-|sé-|e,|dont no- stre'a-|mour par|
 B2 c4 |[M:2/2] F4 z2 f2 | f4 f2 c2- | cdef g4 | z2 f4 f2- | f2 ed c2 d2 | d4 d4- | d8 |] %42
w: seur deb-|voir a|bien es- té|_ _ _ _ _|re- com-|* * * * pen-|sé- e.|_|
V:3
 B2 B2 B2 | A4 A2 | G4 B2 | G4 G2 | B2 B2 B2 | c2 d4 | c2 B4 | A6 | B2 B2 B2 | A4 A2 | G4 B2 | %11
w: Quant ie con-|gneu en|ma pen-|sé- e,|que n'a- voys|nul bien|qu'à te|veoir,|trop ie pen-|say es-|tre'of- fen-|
 G4 G2 | d2 d2 d2 | c2 d2 B2 | c2 A4 |[M:2/2] G4 z2 _e2 | _e3 d c2 B2 | A2 A2 G2 c2 | c2 c2 d4 | %19
w: sé- e,|ne crai- gnant|à l'a- mour|pre- *|veoir, a-|lors tu me feis|à sça- voir, la|flam- m'en toy|
 c4 B2 B2 |[M:2/4] G4 |[M:3/4] A4 z2 | B2 B2 B2 | A4 F2 | B4 A2 |[M:2/2] B4 z2 B2 | B2 B2 AGAB | %27
w: y'a com- men-|cé-|e,|dont no- stre'a-|mour par|seur deb-|voir a|bien es- té _ _ _|
 cBcd e4 | d4 c2 d2 | dcBA G2 B2 |[M:2/4] A4 |[M:3/4] G4 z2 | B2 B2 B2 | A4 F2 | B4 A2 | %35
w: re- * * * com-|pen- sé- *|||e,|dont no- stre'a-|mour par|seur deb-|
[M:2/2] B4 z2 B2 | B2 B2 AGAB | cBcd e4 | d4 c2 d2 | dcBA G2 B2 | A4 G4- | G8 |] %42
w: voir a|bien es- té _ _ _|_ _ _ _ _|re- com- pen-|sé- * * * * *|* e.|_|
V:4
 G,2 G,2 G,2 | D,4 D,2 | _E,4 B,,2 | C,4 G,,2 | G,2 G,2 G,2 | F,2 B,,2 F,2- | F,2 G,4 | D,4 z2 | %8
w: Quant ie con-|gneu en|ma pen-|sé- e,|que n'a- voys|nul bien qu'à|_ te|veoir,|
 G,2 G,2 G,2 | D,4 D,2 | _E,4 B,,2 | C,4 G,,2 | B,,2 B,,2 B,,2 | F,2 D,2 G,2 | C,2 D,4 | %15
w: trop ie pen-|say es-|tre'of- fen-|sé- e,|ne crai- gnant|à l'a- mour|pre- *|
[M:2/2] G,,4 z2 _E,2 | _E,2 E,2 F,2 G,2 | D,2 D,2 G,,2 F,2 | F,2 F,2 B,,4 |"^b" F,4 G,F, E,D, | %20
w: veoir, a-|lors tu me feis|à sça- voir, la|flam- m'en toy|y'a com- * men- *|
[M:2/4]"^b" E,4 |[M:3/4] D,4 z2 | G,2 G,2 G,2 | D,4 D,2 | _E,2 C,4 |[M:2/2] B,,4 z2 B,,2 | %26
w: cé-|e,|dont no- stre'a-|mour par|seur deb-|voir a|
 B,,2 B,,2 F,4- | F,2 C,3 D, E,F, | G,2 F,3 E, D,C, | B,,4 C,2 G,,2 |[M:2/4] D,4 |[M:3/4] G,,4 z2 | %32
w: bien es- té|_ re- * * *|com- pen- * * *|sé- * *||e,|
 G,2 G,2 G,2 | D,4 D,2 | _E,2 C,4 |[M:2/2] B,,4 z2 B,,2 | B,,2 B,,2 F,4- | F,2 C,3 D, E,F, | %38
w: dont no- stre'a-|mour par|seur deb-|voir a|bien es- té|_ re- * * *|
 G,2 F,3 E, D,C, | B,,4 C,2 G,,2 | D,4 G,,4- | G,,8 |] %42
w: com- pen- * * *|sé- * *|* e.|_|

